eperusteet-opintopolku-app/v2/public/img/icons/ryhma.svg

<?xml version="1.0" encoding="UTF-8"?>
<svg width="20px" height="20px" viewBox="0 0 20 20" version="1.1" xmlns="http://www.w3.org/2000/svg" xmlns:xlink="http://www.w3.org/1999/xlink">
    <!-- Generator: sketchtool 58 (101010) - https://sketch.com -->
    <title>444F56E8-81D1-47F4-91E4-1BC407A75F6E@2x</title>
    <desc>Created with sketchtool.</desc>
    <defs>
        <path d="M-1.65201186e-13,17 L-1.65201186e-13,13.7664768 C-1.65201186e-13,13.2429496 0.205278603,12.7402938 0.571759533,12.3664322 C2.11823611,10.7888107 3.9276496,10 6,10 C7.46492359,10 8.79845935,10.3941635 10.0006073,11.1824904 C11.2017326,10.3941067 12.5351818,10 14,10 C16.0723508,10 17.8817646,10.7888111 19.4282414,12.3664332 C19.7947224,12.7402949 20,13.2429509 20,13.7664783 L20,17 L8,17 L-1.65201186e-13,17 Z M14,12 C13.3577863,12 12.5892258,12.2349489 11.6943186,12.7048467 C11.8929262,13.0211587 12,13.3883752 12,13.7664783 L12,15 L18,15 L18,14.2898952 C18.000048,13.9569091 17.8343095,13.6457653 17.5579717,13.4599774 C16.1102742,12.4866591 14.9242837,12 14,12 Z M6,12 C5.07572815,12 3.88975584,12.4866467 2.44208307,13.45994 C2.16573602,13.6457027 2,13.9568405 2,14.2898202 L2,15 L10,15 L10,14.2898202 L10,14.2898202 C10.000048,13.9569091 9.83430949,13.6457653 9.55797167,13.4599774 C8.11027424,12.4866591 6.92428368,12 6,12 Z M6,9 C7.65428571,9 9,7.65428571 9,6 C9,4.34571429 7.65428571,3 6,3 C4.34571429,3 3,4.34571429 3,6 C3,7.65428571 4.34571429,9 6,9 Z M6,4.97857143 C6.55,4.97857143 7,5.43821429 7,6 C7,6.56178571 6.55,7.02142857 6,7.02142857 C5.45,7.02142857 5,6.56178571 5,6 C5,5.43821429 5.45,4.97857143 6,4.97857143 Z M14,9 C15.6542857,9 17,7.65428571 17,6 C17,4.34571429 15.6542857,3 14,3 C12.3457143,3 11,4.34571429 11,6 C11,7.65428571 12.3457143,9 14,9 Z M14,4.97857143 C14.55,4.97857143 15,5.43821429 15,6 C15,6.56178571 14.55,7.02142857 14,7.02142857 C13.45,7.02142857 13,6.56178571 13,6 C13,5.43821429 13.45,4.97857143 14,4.97857143 Z" id="path-1"></path>
    </defs>
    <g id="ASSETIT" stroke="none" stroke-width="1" fill="none" fill-rule="evenodd">
        <g id="ASSETIT---IKONIT" transform="translate(-389.000000, -196.000000)">
            <g id="Ikonit/Ryhmä" transform="translate(389.000000, 196.000000)">
                <g>
                    <mask id="mask-2" fill="white">
                        <use xlink:href="#path-1"></use>
                    </mask>
                    <use id="Mask" fill="#000000" fill-rule="nonzero" xlink:href="#path-1"></use>
                    <g id="Värit/Tumma-harmaa" mask="url(#mask-2)" fill="#575757">
                        <rect id="Rectangle" x="0" y="0" width="20" height="20"></rect>
                    </g>
                </g>
            </g>
        </g>
    </g>
</svg>

<svg width="20" height="20" xmlns="http://www.w3.org/2000/svg">
    <path d="M0 17v-3.234a2 2 0 01.572-1.4C2.118 10.79 3.928 10 6 10a7.14 7.14 0 014 1.182A7.134 7.134 0 0114 10c2.072 0 3.882.789 5.428 2.366a2 2 0 01.572 1.4V17H0zm14-5c-.642 0-1.41.235-2.306.705.199.316.306.683.306 1.061V15h6v-.71a1 1 0 00-.442-.83C16.11 12.487 14.924 12 14 12zm-8 0c-.924 0-2.11.487-3.558 1.46a1 1 0 00-.442.83V15h8v-.71a1 1 0 00-.442-.83C8.11 12.487 6.924 12 6 12zm0-3c1.654 0 3-1.346 3-3S7.654 3 6 3 3 4.346 3 6s1.346 3 3 3zm0-4.021c.55 0 1 .46 1 1.021 0 .562-.45 1.021-1 1.021S5 6.561 5 6c0-.562.45-1.021 1-1.021zM14 9c1.654 0 3-1.346 3-3s-1.346-3-3-3-3 1.346-3 3 1.346 3 3 3zm0-4.021c.55 0 1 .46 1 1.021 0 .562-.45 1.021-1 1.021S13 6.561 13 6c0-.562.45-1.021 1-1.021z"/>
</svg>
